X:1
T:Venezia e Napoli (Revised Version)
T:Venezia e Napoli (Revised Version)
T:I. Gondoliera
T:Franz Liszt, S.162
C:Franz Liszt, S.162
%%score { ( 1 4 ) | ( 2 3 ) }
L:1/8
Q:1/4=116
M:6/8
K:A
V:1 treble nm="Piano" snm="Pno."
V:4 treble 
V:2 bass 
V:3 bass 
V:1
"^Quasi Allegretto" z6 | z2 z z!p! E,/A,/E/A,/ |C/A/ E/A/e/A/c/a/ e/a/e'/a/ | %3
!8va(!c'/a'/ z a/e'/ .c''!8va)! z2 | z6 | z2 z z!p! ^E,/A,/^E/A,/ |C/A/ ^E/A/^e/A/c/a/ e/a/^e'/a/ | %7
!8va(!c'/a'/ z a/^e'/ .c''!8va)! z2 | z6 | z2 z z!p! F,/^A,/F/A,/ | %10
C/^A/ F/A/f/A/c/^a/!8va(! f/a/f'/a/ |c'/^a'/ z ^a/f'/ .c''!8va)! z2 | %12
 z2!pp![Q:1/4=110] ^A/f/.c' z2[Q:1/4=104] | z2[Q:1/4=92] ^A/f/.c' z!ppp![Q:1/4=84]!8va(! ^a/f'/ | %14
 .c''!8va)! z z4 | z6 ||[K:F#][Q:1/4=100] z!p! !fermata![Ac][GB] | %17
 [FA]2 [FA] !arpeggio![FA]2 [GB] | !>![Bd]2 [Ac] z [GB][FA] | %19
 [EG][Bd][Ac][Q:1/4=85] !arpeggio![Ac][Bd][GB] | [E^^G]2!pp! [FA] z!p![Q:1/4=100] [Ac][^GB] | %21
 [FA]2 [FA] !arpeggio![FA]2 [GB] | !>![Bd]2 [Ac] z [GB][FA] | %23
 [EG][Bd][Ac][Q:1/4=85] !arpeggio![Ac][Bd][GB] | [FA]2 z z[Q:1/4=100] [cac'] !>![B^gb] | %25
 [Afa]2 [Afa] [Afa]2 [Bgb] | [dbd']2 [cac'] z [Bgb][Afa] | %27
 [Geg][dbd'][cac'] [bd']/4[ac']/4[g^b]/4[ac']/4 [d=bd'][B^gb] | %28
 [^^Ge^^g]2 [Afa] z [cac']!>![B^gb] | [Afa]2 [Afa] [Afa]2 [Bgb] | [dbd']2 [cac'] z [Bgb][Afa] | %31
 [Geg][dbd'][cac'] [Bdb][Aca][Gcg] | [FAf]3 z !breath!z3/2 [Ec]/ | %33
!mp! [Ec]2[K:bass]!<(! [E,C] [E,C]2!<)!!mp! [E,C] | %34
!>(! ^B,2- B,/D/4C/4 B,!>)![K:treble]!mp! [EG][FA] | [G=B][FA][EG] !arpeggio![Bd][Ac][GB] | %36
 !arpeggio![B,CE^^G]3 !arpeggio![FA] !>!F!>![Fc] | c>^B(3A/B/c/ TB3- | B3!p! .=B/.^B/.d/.f/.g/.a/ | %39
!8va(! .=b/.^b/.d'/.f'/.g'/.=a'/ ^a'!8va)! z [DF^B] | !>!d>c(3^B/c/d/ Tc3- | %41
 c3!p! .c/.=e/.^e/.g/.=b/.^b/ | %42
[Q:1/4=80]!8va(! .c'/.=e'/.^e'/.g'/.=b'/.^b'/ d'' (3z/!pp! c''/^^g'/(3a'/c''/=b'/ | %43
 (3^^f'/^g'/b'/[Q:1/4=108](3a'/^e'/^f'/(3a'/g'/=e'/ (3^e'/g'/f'/[Q:1/4=124](3^^c'/d'/f'/(3e'/^b/^c'/ | %44
 (3e'/d'/a/(3=b/d'/c'/(3^^g/a/c'/!8va)! (3b/^^f/^g/(3b/a/^e/(3f/a/g/ | %45
 (3^^d/e/g/(3f/^^c/^d/(3f/e/^B/[Q:1/4=116] (3^c/e/d/(3A/=B/d/(3c/^^G/A/ | %46
[Q:1/4=108] (3c/B/^^F/(3^G/=A/^A/(3B/^B/c/[Q:1/4=100]!<(! .^e/.d/.c/.[=Bd]/.[Ac]/.[GB]/!<)! | %47
!p! [FA]2 [FA] !arpeggio![FA]2 [GB] | !>![Bd]2 [Ac] z [GB][FA] | %49
 [EG][Bd][Ac][Q:1/4=85] !arpeggio![GB][FA][EG] | %50
 [E^^G]2!pp! [FA] z!pp![Q:1/4=100] [cac']!>![B^gb] | [Afa]2 [Afa] [Afa]2 [Bgb] | %52
 [dbd']2 [cac'] z [Bgb][Afa] | [Geg][dbd'][cac'] [Bgb][Afa][Geg] | %54
[Q:1/4=85] [Afa]3 z !breath!z3/2!mp![Q:1/4=100] [Ec]/ | %55
!mp! [Ec]2[K:bass]!<(! [E,C] [E,C]2!<)!!mp! [E,C] | %56
!>(! ^B,2- B,/D/4C/4 B,!>)![K:treble]!mp! [EG][FA] | [G=B][FA][EG] !arpeggio![Bd][Ac][GB] | %58
 !arpeggio![B,CE^^G]3 !arpeggio![FA] F[Fc] | !>!c>^B!mp!(3A/B/c/!p! TB3- | %60
 B3!p! (3=B/!>(!^B/d/(3B/f/B/(3=a/B/^a/ | (3^B/^b/B/(3d'/B/f'/!>)!!pp!(3B/=a'/B/ ^a' z!mp! [DF^B] | %62
 !>!d>c!mp!(3^B/c/d/!p! Tc3- | c3!p! (3^B/c/e/(3c/g/c/(3=b/c/^b/ | %64
 (3c/c'/c/(3d'/c/e'/[Q:1/4=80](3c/g'/c/!pp! b'/c/^b'/c/ c''/ z/ | %65
 z[Q:1/4=124]"_veloce leggierissimo"!pp!!8va(! (3d''/a'/b'/(3=d''/a'/b'/(3c''/=a'/^a'/(3^b'/^g'/=a'/(3=b'/=g'/^g'/ | %66
 (3^a'/f'/=g'/(3=a'/^e'/f'/(3^g'/=e'/^e'/(3=g'/^d'/=e'/(3f'/=d'/^d'/(3^e'/c'/=d'/ | %67
(3=e'/^b/c'/(3^d'/=b/^b/(3=d'/^a/=b/(3c'/=a/^a/(3^b/^g/=a/!8va)!(3=b/=g/^g/ | %68
 (3^a/f/=g/(3=a/^e/f/(3^g/=e/^e/(3=g/^d/=e/(3f/=d/^d/(3^e/c/=d/ | %69
(3=e/^B/c/(3^d/=B/^B/(3=d/^A/=B/!ppp! (3c/A/B/(3=d/A/B/(3c/A/B/ | %70
!<(! (3d/A/B/(3c/A/B/(3d/A/B/ (3c/A/B/(3d/A/B/(3c/A/B/(3d/A/B/(3c/A/B/(3d/A/B/!<)! | %71
!pp! (3=d/c/d/(3c/d/c/(3d/c/d/[Q:1/4=116] (3c/d/c/(3d/c/d/(3c/d/c/ | %72
[Q:1/4=108] (3^d/c/d/(3c/d/c/(3d/c/d/[Q:1/4=100](3d/c/d/(3c/d/c/(3d/c/d/ | %73
 x4[Q:1/4=92][Q:1/4=88] !>![ac'] !>![gb] | !>![fa] z !>![fa] !>![fa] z !>![gb] | %75
 !>![bd']2 !>![ac'] z !>![gb] !>![fa] | !>![eg] !>![bd'] !>![ac'] !>![gb] !>![fa] !>![eg] | %77
 !>![e^^g]2 [fa] z !>![ac'] !>![^gb] | !>![fa] z !>![fa] !>![fa] z !>![gb] | %79
 !>![bd']2 !>![ac'] z !>![gb] !>![fa] | !>![eg] !>![bd'] !>![ac'] !>![gb] !>![fa] !>![eg] | %81
 !>![fa]2 x2 x2!8va(! | %82
 z/4 d''/4c''/4a'/4f'/4d'/4c'/4a/4!8va)!f/4d/4c/4d/4f/4a/4c'/4d'/4 Tc' ^b/c'/ | %83
 z/4!8va(! d''/4c''/4a'/4f'/4d'/4c'/4a/4!8va)!f/4d/4c/4d/4f/4a/4c'/4d'/4 Tc' ^b/c'/ | %84
 z/4!8va(! d''/4c''/4g'/4e'/4d'/4c'/4g/4!8va)!e/4d/4c/4d/4e/4g/4c'/4d'/4 Tc' ^b/c'/ | %85
 z/4!8va(! d''/4c''/4a'/4f'/4d'/4c'/4a/4!8va)!f/4d/4c/4d/4f/4a/4c'/4d'/4 Tc' ^b/c'/ | %86
 z/4!8va(! d''/4c''/4a'/4f'/4d'/4c'/4a/4!8va)!f/4d/4c/4d/4f/4a/4c'/4d'/4 Tc' ^b/c'/ | %87
 z/4!8va(! d''/4c''/4a'/4f'/4d'/4c'/4a/4!8va)!f/4d/4c/4d/4f/4a/4c'/4d'/4 Tc' ^b/c'/ | %88
 z/4!8va(! d''/4c''/4g'/4e'/4d'/4c'/4g/4!8va)!e/4d/4c/4d/4e/4g/4c'/4d'/4 Tc' ^b/c'/ | %89
 z/4!8va(! d''/4c''/4f'/4d'/4c'/4d'/4c'/4f/4d/4c/4d/4f/4c'/4d'/4c'/4 Tc' ^b/c'/ | %90
 z/4 d''/4c''/4e'/4d'/4c'/4d'/4c'/4e/4d/4c/4d/4e/4c'/4d'/4c'/4 Tc' ^b/c'/ | %91
 z/4 d''/4c''/4d'/4d'/4c'/4d'/4c'/4d/4c/4d/4c/4d/4c'/4d'/4c'/4 Tc' ^b/c'/ | %92
 d''/4c''/4d'/4d'/4c'/4d'/4c'/4d/4c/4d/4c/4d/4c'/4d'/4c'/4 Tc' ^b/c'/ z/4 | %93
 z/4 d''/4c''/4d'/4d'/4c'/4d'/4c'/4d/4c/4d/4c/4d/4c'/4d'/4c'/4 Tc' ^b/c'/ | %94
 z/4 d''/4c''/4d'/4d'/4c'/4d/4d/4c/4d/4d/4c'/4 d'/4d'/4c''/4d''/4c''/4d'/4d'/4c'/4d/4d/4c/4d/4 | %95
 d/4c'/4d'/4d'/4c''/4d''/4c''/4d'/4d'/4c'/4d/4d/4 c/4d/4d/4c'/4d'/4d'/4c''/4d''/4c''/4d''/4c''/4d''/4 | %96
!>(! c''/4d''/4c''/4d''/4c''/4d''/4c''/4d''/4c''/4d''/4c''/4d''/4!>)!!ppp! x/4 [b'd'']/4!<(!x/4[b'd'']/4 x/4 [b'd'']/4x/4[b'd'']/4 x/4 [b'd'']/4x/4[b'd'']/4 | %97
 x/4 [b'd'']/4x/4[b'd'']/4 x/4!<)!!mf! [b'd'']/4x/4[b'd'']/4!>(! x/4 [b'd'']/4x/4[b'd'']/4 x/4 [b'd'']/4x/4[b'd'']/4 x/4 [b'd'']/4x/4[b'd'']/4 x/4 [b'd'']/4x/4[b'd'']/4!>)! | %98
!ppp! (5:4:5z/4 d''/4c''/4^b'/4c''/4 e''/4d''/4c''/4^b'/4=b'/4a'/4g'/4f'/4e'/4d'/4c'/4^b/4=b/4a/4g/4f/4!8va)!e/4d/4c/4^B/4 | %99
=B/4A/4G/4F/4E/4D/4C/4^B,/4[I:staff +1]=B,/4A,/4G,/4F,/4E,/4D,/4C,/4^B,,/4[I:staff -1] x2 | %100
 x6[Q:1/4=80] |!pp![Q:1/4=92]"^quieto" z2 !arpeggio![A,CFA] !arpeggio![A,CFA]2 !arpeggio![B,FB] | %102
!pp!!>(! !arpeggio![^B,Fd]3!>)!!pp! !arpeggio![CFc] z z | %103
 z!pp!!<(! .[=DFB].[DF=A] .[DFG].[DF=d]!<)!!pp!.[DFc] | %104
 .[=DFB]!>(!.[FBf].[FB=e] .[FB=d].[Fc].[FB]!>)! |!pp! z2!<(! .[^Acf^a] .[Acfa]2 .[Bfb]!<)! | %106
!p!!>(! !arpeggio![^Bfd']3!>)!!pp! [cfc'] z z | %107
!8va(! z!pp!!<(! .[=dfb].[df=a] .[dfg].[df=d']!<)!!pp!.[dfc'] | %108
 .[=dfb]!>(!.[fbf'].[fb=e'] .[fb=d'].[fc'].[fb]!>)! |!pp! z2 .[^ac'f'^a'] .[ac'f'a']2 z | %110
 z .[ff'].[f=e'] .[f=d'].[fc'].[f^b] | z2 .[^ac'f'^a'] .[ac'f'a']2 z | %112
 z!>(! .[ff'].[f=e'] .[f=d'].[fc'].[f^b]!>)! |[Q:1/4=88]!pp!"_dim." z2 .[^ac'f'^a'] .[ac'f'a']3 | %114
 z2 [ad'f'a'] [ad'f'a']3 | z2 .[ac'f'a'] .[ac'f'a']3 | z2 .[ac'e'a'] .[ac'e'a']3 | %117
[Q:1/4=84] z2 .[ac'f'a'] .[ac'f'a']3 | z2 [ad'f'a'] [ad'f'a']3 | z2 .[ac'f'a'] .[ac'f'a']3 | %120
 z2 .[ac'e'a'] .[ac'e'a']3 |!ppp! z2 z [ac'f'a']3 | [ad'f'a']6 |[Q:1/4=80] z2 z [ac'f'a']3 | %124
 [ac'e'a']6 | z6 | [ac'f'a']3- [ac'f'a'] z z | [ac'f'a']6- | !fermata![ac'f'a']6!8va)! |] %129
V:2
 z!pp!!ped! C,,C, E,,C,,C, | E,,C,,C, E,,C,,C, | E,,C,,C, E,,C,,C, | E,,C,,C, E,,C,,C, | %4
 E,,C,,C,!ped-up!!ped! ^E,,C,,C, | ^E,,C,,C, E,,C,,C, | ^E,,C,,C, E,,C,,C, | ^E,,C,,C, E,,C,,C, | %8
 ^E,,C,,C,!ped-up!!ped! F,,C,,C, | F,,C,,C, F,,C,,C, | F,,C,,C, F,,C,,C, | F,,C,,C, F,,C,,C, | %12
 F,,C,, z z2[K:treble] ^A,/F/ |.c z z z2 z |!ped! z6!ped-up! | z6 ||[K:F#][K:bass] z2 z | %17
!ped! z!pp! CF, C,F,,C,!ped-up! |!ped! z CF, C,F,,C,!ped-up! |!ped! z CF, C,F,,C,!ped-up! | %20
!ped! z CF, C,F,,C,!ped-up! |!ped! z CF, C,F,,C,!ped-up! |!ped! z CF, C,F,,C,!ped-up! | %23
!ped! z CF, C,F,,C,!ped-up! |!ped! z CF, C,F,,C,!ped-up! | %25
!ped! z [CF][F,C] [C,F,][F,,C,][C,F,]!ped-up! |!ped! z [CF][F,C] [C,F,][F,,C,][C,F,]!ped-up! | %27
!ped! z [CE][E,C] [C,E,][F,,C,][C,E,]!ped-up! |!ped! z [CF][F,C] [C,F,][F,,C,][C,F,]!ped-up! | %29
!ped! z [CF][F,C] [C,F,][F,,C,][C,F,]!ped-up! |!ped! z [CF][F,C] [C,F,][F,,C,][C,F,]!ped-up! | %31
!ped! z [CE][E,C] [C,E,][F,,C,][C,E,]!ped-up! |!ped! z [F,,C,][C,F,] [F,C][CF] z!ped-up! | %33
 z!p!!ped! C,,G,, [C,G,]!ped-up!G,,[C,G,] |!ped! z C,,G,, [D,G,] z z!ped-up! | %35
!ped! z C,,B,, E,!ped-up!B,D/C/ |!ped! z!p! F,,C, F,A,[D,A,]!ped-up! | %37
!ped! G,, z [G,DF]!ped-up!!ped![G,DF] z [G,EG]!ped-up! |[K:treble] A2 G z2 z | %39
 z2 z z2[K:bass]!p! G, |!ped! [C,=B,] z[K:treble] [=B,EG]!ped-up!!ped![B,EG] z [B,E^^G] | %41
 A2 G z2 z | x6!ped-up!!ped! | x6 |[K:bass] x6 | x6 | x6 | %47
!ped! z!pp! D/C/F,/C/!ped-up!!ped! F,/C,/D,/C,/F,,/C,/ | %48
!ped! z D/C/F,/C/!ped-up!!ped! F,/C,/D,/C,/F,,/C,/!ped-up! | %49
!ped! z D/C/E,/C/!ped-up!!ped! E,/C,/D,/C,/F,,/C,/!ped-up! | %50
!ped! z D/C/F,/C/!pp!!ped-up!!ped! F,/C,/D,/C,/F,,/C,/!ped-up! | %51
!ped! z!pp! D/C/F,/C/!ped-up!!ped! F,/C,/D,/C,/F,,/C,/!ped-up! | %52
!ped! z D/C/F,/C/!ped-up!!ped! F,/C,/D,/C,/F,,/C,/!ped-up! | %53
!ped! z D/C/E,/C/!ped-up!!ped! E,/C,/D,/C,/F,,/C,/!ped-up! | %54
!ped! z D/C/F,/C/!ped-up!!ped! F,/C,/D,/C,/!fermata!F,,/ z/!ped-up! | %55
!p!!ped! z C,,/G,,/C,/G,/!ped-up!!ped! G,/C,/G,,/C,/!ped-up!G, | %56
!ped! z C,,/G,,/D,/F,/!ped-up!!ped! G,/D,/G,/D/G,!ped-up! | %57
!ped! z C,,/G,,/C,/G,/ B,/^B,/C/D/C!ped-up! | %58
!ped! z F,,/C,/E,/C,/!ped-up!!ped! F,/G,/^^G,/A,/D,/A,/ | %59
!ped! G,, z [G,DF]!ped-up!!ped![G,DF] z!p! [G,EG]!ped-up! | %60
[K:treble]!>(! A2 G!>)!!ped-up!!ped! z z2 |[K:bass]!ped! z2 z z2 G,!ped-up! | %62
!ped! [C,=B,] z[K:treble] [=B,EG]!ped-up!!ped![B,EG] z!p! [B,E^^G] | A2 G!ped-up!!ped! z z2 | %64
!ped! z6!ped-up! |[K:bass]!ped! x6!ped-up! | x6 | x6 | x6 | x6 | x8 x | x z z z2 z | z6 | z6 | %74
!ped! z[K:treble] F,/4C/4F/4A/4F/4A/4F/4A/4F/4A/4F/4A/4F/4A/4F/4A/4 F/ z/!ped-up! | %75
!ped! z F,/4C/4F/4A/4F/4A/4F/4A/4F/4A/4F/4A/4F/4A/4F/4A/4 F/ z/!ped-up! | %76
!ped! z F,/4C/4E/4B/4E/4B/4E/4B/4E/4B/4E/4B/4E/4B/4E/4B/4 C/ z/!ped-up! | %77
!ped! z F,/4C/4F/4A/4F/4A/4F/4A/4F/4A/4F/4A/4F/4A/4F/4A/4 F/ z/!ped-up! | %78
!ped! z[K:treble] F,/4C/4F/4A/4F/4A/4F/4A/4F/4A/4F/4A/4F/4A/4F/4A/4 F/ z/!ped-up! | %79
!ped! z F,/4C/4F/4A/4F/4A/4F/4A/4F/4A/4F/4A/4F/4A/4F/4A/4 F/ z/!ped-up! | %80
!ped! z F,/4C/4E/4B/4E/4B/4E/4B/4E/4B/4E/4B/4E/4B/4E/4B/4 C/ z/!ped-up! | %81
!ped! z F,/4C/4F/4A/4F/4A/4F/4A/4 z!p! .[Ac].[GB]!ped-up! | %82
!ped! !arpeggio![FA]z[FA] [FA]z[GB]!ped-up! |!ped! !arpeggio!!>![Bd]z[Ac] z [GB][FA]!ped-up! | %84
!ped! !arpeggio![EG] [Bd][Ac] [GB][FA][EG]!ped-up! | %85
!ped! !arpeggio!!>![E^^G]z[FA] z [Ac][^GB]!ped-up! |!ped! !arpeggio![FA]z[FA] [FA]z[GB]!ped-up! | %87
!ped! !arpeggio!!>![Bd]z[Ac] z [GB][FA]!ped-up! | %88
!ped! !arpeggio![EG] [Bd][Ac] [GB][FA][EG]!ped-up! | %89
!ped! !arpeggio![DF][Ac][GB] [FA][EG]!arpeggio![DF]!ped-up! | %90
!ped! !arpeggio![CE][GB][FA] [EG][DF][CE]!ped-up! | %91
!ped! !arpeggio![B,D][FA][EG] [DF][CE][B,D]!ped-up! |!ped! EAG FED!ped-up! |!ped! EAG FED!ped-up! | %94
!ped! !arpeggio![F,G,B,E]3 !arpeggio![F,G,B,E]3!ped-up! | %95
!ped! !arpeggio![F,G,B,E]3 !arpeggio![F,G,B,E]3!ped-up! |!ped! z6!ped-up! | z6 |[K:bass] x6 | %99
 x4 .=B,,/.A,,/ .G,,/.F,,/ | .E,,/.D,,/ .C,,!ppp! .^B,,, .=B,,, .A,,, .!fermata!G,,, | %101
!ped! F,,,2 !arpeggio![F,,C,F,] !arpeggio![F,,C,F,]2 !arpeggio![F,,C,G,]!ped-up! | %102
!ped! !arpeggio![F,,C,^^G,]3!ped-up!!ped! !arpeggio![F,,C,A,] z z!ped-up! | %103
!pp!!ped! x .[=D,F,B,].[D,F,B,] .[D,F,B,].[D,F,B,].[D,F,B,]!ped-up! | %104
 .[=D,F,B,].[F,B,=D].[F,B,D] .[F,B,D].[F,G,D].[F,G,D] | %105
!ped! !^!F,,,2[K:treble] .[F,CF] .[F,CF]2 .[F,CB]!ped-up! | %106
!ped! !arpeggio![F,C^^G]3!ped-up!!ped! [F,CA] z z!ped-up! | %107
[K:bass]!ped! !^!F,,,[K:treble] .[=DFB].[DFB] .[DFB].[DFB].[DFB]!ped-up! | %108
 .[=DFB].[FB=d].[FBd] .[FBd].[FGd].[FGd] | %109
[K:bass]!ped! F,,,2[K:treble] .[CF^Ac] .[CFAc]2 z!ped-up! | %110
[K:bass]!ped! F,,,[K:treble] .[=DF=A=d].[DFAd] .[DFAd].[DFAd]!ped-up!.[DFAd] | %111
[K:bass]!ped! F,,,2[K:treble] .[CF^Ac] .[CFAc]2 z!ped-up! | %112
[K:bass]!ped! F,,,[K:treble] .[=DF=A=d].[DFAd] .[DFAd].[DFAd]!ped-up!.[DFAd] | %113
[K:bass]!ped! !>!F,,,2[K:treble] .[CF^Ac] .[CFAc]3!ped-up! | z2!ped! [DFAd] [DFAd]3!ped-up! | %115
[K:bass]!ped! !>!F,,,2[K:treble] .[A,CFA] .[A,CFA]3!ped-up! | z2!ped! .[A,CFA] .[A,CFA]3!ped-up! | %117
[K:bass]!ped! !>!F,,,2[K:treble] .[CFAc] .[CFAc]3!ped-up! | z2!ped! [DFAd] [DFAd]3!ped-up! | %119
[K:bass]!ped! !>!F,,,2[K:treble] .[A,CFA] .[A,CFA]3!ped-up! | z2!ped! .[A,CFA] .[A,CFA]3!ped-up! | %121
[K:bass]!ped! !>!F,,,2 z [F,A,CF]3!ped-up! | [A,DFA]6 |!ped! !>!F,,,2 z [F,A,CF]3!ped-up! | %124
 [A,CEA]6 |!ped! !>!F,,,2 z z2 z!ped-up! | [F,A,CF]3- [F,A,CF] z z |!ppp! [A,CFA]6- | %128
 !fermata![A,CFA]6 |] %129
V:3
 x3 E,,3 | x6 | x6 | x6 | x3 ^E,,3 | x6 | x6 | x6 | x3 F,,3 | x6 | x6 | x6 | x5[K:treble] x | x6 | %14
 x6 | x6 ||[K:F#][K:bass] x3 | x6 | x6 | x6 | x6 | x6 | x6 | x6 | x6 | x6 | x6 | x6 | x6 | x6 | %30
 x6 | x6 | x6 | x6 | x6 | x6 | x6 | x6 |[K:treble] !arpeggio![G,DF]3 x2 x | x5[K:bass] x | %40
 x2[K:treble] x4 | !arpeggio![B,E]3 x2 x | x6 | x6 |[K:bass] x6 | x6 | x6 | x6 | x6 | x6 | x6 | %51
 x6 | x6 | x6 | x6 | x6 | x6 | x6 | x6 | x6 |[K:treble] !arpeggio![G,DF]3 x3 |[K:bass] x6 | %62
 x2[K:treble] x4 | !arpeggio![B,E]3 x3 | x6 |[K:bass] x6 | x6 | x6 | x6 | x6 | x9 | x6 | x6 | x6 | %74
 x[K:treble] x5 | x6 | x6 | x6 | x[K:treble] x5 | x6 | x6 | x6 | !arpeggio![F,C] x x4 | F x x4 | %84
 !arpeggio![F,C] x x4 | !arpeggio![F,C] x x4 | !arpeggio![F,C] x x4 | F x x4 | %88
 !arpeggio![F,C] x x4 | F, x x2 x F, | F, x x2 x F, | F, x x2 x F, | %92
 !arpeggio![F,G,B,] x x2 x [F,G,B,] | [F,G,B,] x x x2 [F,G,B,] | x6 | x6 | x6 | x6 |[K:bass] x6 | %99
 x6 | x6 | x6 | x6 | !^!F,,,2 x4 | x6 | x2[K:treble] x4 | x6 |[K:bass] x[K:treble] x5 | x6 | %109
[K:bass] x2[K:treble] x4 |[K:bass] x[K:treble] x5 |[K:bass] x2[K:treble] x4 | %112
[K:bass] x[K:treble] x5 |[K:bass] x2[K:treble] x4 | x6 |[K:bass] x2[K:treble] x4 | x6 | %117
[K:bass] x2[K:treble] x4 | x6 |[K:bass] x2[K:treble] x4 | x6 |[K:bass] x6 | x6 | x6 | x6 | x6 | %126
 x6 | x6 | x6 |] %129
V:4
 x6 | x6 | x6 |!8va(! x4!8va)! x2 | x6 | x6 | x6 |!8va(! x4!8va)! x2 | x6 | x6 | x4!8va(! x2 | %11
 x4!8va)! x2 | x6 | x5!8va(! x | x!8va)! x5 | x6 ||[K:F#] x3 | x3 C x2 | x6 | x3 E x2 | x6 | %21
 x3 C x2 | x6 | x3 E x2 | x6 | x6 | x6 | x6 | x6 | x6 | x6 | x6 | x6 | x2[K:bass] x4 | %34
 [D,F,]3 F,[K:treble] x2 | C3 C3 | z x2 !arpeggio![A,C] CC | !arpeggio![DF] x x4 | x6 | %39
!8va(! x4!8va)! x2 | !arpeggio![DF] x x4 | x6 |!8va(! x6 | x6 | x3!8va)! x3 | x6 | x6 | x3 C x2 | %48
 x6 | x3 C x2 | x6 | x6 | x6 | x6 | x6 | x2[K:bass] x4 | [D,F,]3 F,[K:treble] x2 | C3 C3 | %58
 z x2 !arpeggio![A,C] CC | [DF] x x4 | x6 | x6 | !arpeggio![DF] x x4 | x6 | x6 | %65
 x!8va(! (3:2:2e'g'/(3:2:2e'g'/(3:2:2=e'=g'/(3:2:2^d'f'/(3:2:2=d'^e'/ | %66
 (3:2:2c'=e'/(3:2:2^b^d'/(3:2:2=b=d'/(3:2:2^ac'/(3:2:2=a^b/(3:2:2g=b/ | %67
(3:2:2=g^a/(3:2:2f=a/(3:2:2^e^g/(3:2:2=e=g/(3:2:2^df/!8va)!(3:2:2=d^e/ | %68
 (3:2:2c=e/(3:2:2^B^d/(3:2:2=B=d/(3:2:2^Ac/(3:2:2=A^B/(3:2:2G=B/ | %69
(3:2:2=G^A/(3:2:2F=A/(3:2:2FG/ (3:2:2^EG/(3:2:2FG/(3:2:2EG/ | %70
 (3:2:2F=G/(3:2:2EG/(3:2:2FG/ (3:2:2EG/(3:2:2FG/(3:2:2EG/(3:2:2FG/(3:2:2EG/(3:2:2FG/ | %71
 !arpeggio![EGB]/ z/ x2 x x2 | x6 | %73
 d/4c/4d/4c/4d/4c/4d/4c/4d/4c/4d/4c/4 d/4c/4d/4c/4 z/4 c/4d/4c/4 z/4 c/4d/4c/4 | %74
 z/4 c/4d/4c/4d/4c/4d/4c/4 z/4 c/4d/4c/4 z/4 c/4d/4c/4d/4c/4d/4c/4 z/4 c/4d/4c/4 | %75
 z/4 c/4d/4c/4d/4c/4d/4c/4 z/4 c/4d/4c/4 d/4c/4d/4c/4 z/4 c/4d/4c/4 z/4 c/4d/4c/4 | %76
 z/4 c/4d/4c/4 z/4 c/4d/4c/4 z/4 c/4d/4c/4 z/4 c/4d/4c/4 z/4 c/4d/4c/4 z/4 c/4d/4c/4 | %77
 z/4 c/4d/4c/4d/4c/4d/4c/4 z/4 c/4d/4c/4 d/4c/4d/4c/4 z/4 c/4d/4c/4 z/4 c/4d/4c/4 | %78
 z/4 c/4d/4c/4d/4c/4d/4c/4 z/4 c/4d/4c/4 z/4 c/4d/4c/4d/4c/4d/4c/4 z/4 c/4d/4c/4 | %79
 z/4 c/4d/4c/4d/4c/4d/4c/4 z/4 c/4d/4c/4 d/4c/4d/4c/4 z/4 c/4d/4c/4 z/4 c/4d/4c/4 | %80
 z/4 c/4d/4c/4 z/4 c/4d/4c/4 z/4 c/4d/4c/4 z/4 c/4d/4c/4 z/4 c/4d/4c/4 z/4 c/4d/4c/4 | %81
 z/4 c/4d/4c/4d/4c/4d/4c/4d/4c/4d/4c/4 (6:4:6^B/4c/4d/4e/4f/4g/4(6:4:6a/4b/4^b/4c'/4d'/4e'/4!8va(!(6:4:6f'/4g'/4a'/4b'/4^b'/4c''/4 | %82
 x2!8va)! x4 | x/4!8va(! x7/4!8va)! x4 | x/4!8va(! x7/4!8va)! x4 | x/4!8va(! x7/4!8va)! x4 | %86
 x/4!8va(! x7/4!8va)! x4 | x/4!8va(! x7/4!8va)! x4 | x/4!8va(! x7/4!8va)! x4 | x/4!8va(! x23/4 | %90
 x6 | x6 | x6 | x6 | x6 | x6 | %96
 x2 x [g'c'']/4x/4[e'c'']/4 x/4 [g'c'']/4x/4[e'c'']/4 x/4 [g'c'']/4x/4[e'c'']/4 x/4 | %97
 [g'c'']/4x/4[e'c'']/4 x/4 [g'c'']/4x/4[e'c'']/4 x/4 [g'c'']/4x/4[e'c'']/4 x/4 [g'c'']/4x/4[e'c'']/4 x/4 [g'c'']/4x/4[e'c'']/4 x/4 [g'c'']/4x/4[e'c'']/4 x/4 | %98
 [g'c'']/4 x/4 x/ x x4!8va)! | x6 | x6 | x6 | x6 | x6 | x6 | x6 | x6 |!8va(! x6 | x6 | x6 | x6 | %111
 x6 | x6 | x6 | x6 | x6 | x6 | x6 | x6 | x6 | x6 | x6 | x6 | x6 | x6 | x6 | x6 | x6 | x6!8va)! |] %129

